assets/ai/ai-africarxiv-square.svg

<svg xmlns="http://www.w3.org/2000/svg" width="100%" height="100%" viewBox="-75.52 -43.52 599.04 599.04"><path d="M 48 32 C 21.5 32 0 53.5 0 80 L 0 432 C 0 458.5 21.5 480 48 480 L 400 480 C 426.5 480 448 458.5 448 432 L 448 80 C 448 53.5 426.5 32 400 32 L 48 32 z M 187.12109 96.005859 C 192.07343 96.092505 197.11983 97.057021 202.2793 98.464844 C 199.60798 101.88111 194.60631 101.14314 192.26953 104.62109 C 196.38793 105.25807 199.84422 102.4239 204.73242 102.0918 C 199.28184 108.9706 204.17848 112.76517 208.89453 117.24805 L 99.882812 153.02344 C 103.43881 146.94911 107.10576 143.02605 110.5918 138.96289 C 110.606 138.95089 110.62067 138.93943 110.63477 138.92773 C 111.51778 135.40939 114.34167 133.8175 117.30664 132.42188 C 120.65277 130.84209 123.53279 128.77212 125.35742 125.4668 C 125.22335 120.85567 127.36265 118.1334 131.81055 116.72266 C 141.16105 113.74962 149.44488 108.15328 159.26758 106.04883 C 162.26977 105.40759 165.43514 102.75624 168.44336 100.92578 L 168.4375 100.94141 C 174.53988 97.232757 180.7538 95.894458 187.12109 96.005859 z M 245.61914 117.71289 L 245.62109 117.71289 C 249.29876 119.72421 252.02718 123.29784 256.36328 124.22461 L 259.44727 124.47461 C 259.45677 124.47111 259.46561 124.46689 259.47461 124.46289 L 259.47461 124.47656 A 33.572039 33.572039 0 0 0 271.01758 121.94531 C 276.42736 119.78256 280.17108 121.36168 282.30469 126.76562 C 282.30469 126.76762 282.30329 126.77048 282.30273 126.77148 C 282.30673 126.76948 282.30855 126.76762 282.31055 126.76562 C 283.89615 130.47318 285.38978 134.21076 285.22656 138.36719 L 240.69727 163.16016 C 239.94526 163.57989 238.6977 163.4231 238.7793 164.80469 L 238.77539 164.80664 C 238.78469 164.80864 238.79373 164.80855 238.80273 164.81055 C 247.82679 163.58635 255.62115 158.87133 264.01562 155.86914 C 272.41008 152.86695 280.81152 149.53598 289.00195 145.88672 C 292.54044 144.31275 294.24801 145.17804 295.76367 148.28516 C 297.51252 151.91111 298.89398 155.62234 299.16797 159.67383 C 299.16307 159.68023 299.15739 159.68736 299.15039 159.69336 C 300.00993 165.12869 302.18007 170.09865 304.60156 174.97656 L 304.60156 175.00586 C 308.13424 178.60266 304.08464 179.00473 302.30664 179.92578 C 281.5692 190.61707 260.82135 201.31068 240.06836 212.00586 C 224.44144 220.0933 208.8005 228.14459 193.14258 236.1582 C 191.66771 236.9102 190.12826 238.71018 188.47852 237.80078 C 179.78675 232.99727 170.38929 236.06558 161.36523 235.14453 C 159.47065 234.95213 157.53508 235.10352 155.61719 235.10352 C 154.2228 236.12492 152.63737 236.1027 151.03125 235.96289 C 151.02135 235.96759 151.01195 235.97156 151.00195 235.97656 L 150.98047 235.96094 C 150.97187 235.9603 150.96408 235.95956 150.95508 235.95898 L 150.95898 235.95508 C 146.71978 236.6871 142.52619 236.63306 138.56641 234.78711 C 136.02475 233.62121 133.90417 233.97742 132.73828 236.43164 C 130.66297 240.75711 127.49228 240.23247 124.08203 238.7168 C 120.41411 237.09825 116.80874 235.34082 113.18164 233.64062 C 113.17524 233.64403 113.16811 233.64639 113.16211 233.65039 C 108.48102 232.06477 103.49045 231.0572 100.10352 226.97656 C 96.4834 224.5923 95.429569 222.74318 100.74023 221.0293 C 109.32124 218.25447 117.17336 213.36309 126.22656 211.80078 L 157.82812 195.70117 L 178.81445 183.40039 C 179.14992 182.61875 179.76488 182.20279 180.42969 181.85156 A 6.5348601 6.5348601 0 0 1 178.7207 182.00781 C 158.2553 190.98912 137.79347 199.97575 117.33594 208.96875 C 110.86521 211.81937 104.38915 214.6699 98.005859 217.71289 C 95.184384 219.05368 93.476973 219.19406 92.794922 215.52148 C 91.722295 209.72114 90.305542 203.97949 91.996094 198.07422 C 92.002434 198.07122 92.007772 198.06941 92.013672 198.06641 A 4.0281785 4.0281785 0 0 1 94.378906 194.3418 C 100.89045 190.20287 98.57741 184.36217 97.294922 178.8125 C 95.540244 171.21084 95.87701 170.51651 103.50781 168.02148 C 127.37375 157.25247 151.25136 146.49372 175.13672 135.74414 C 185.4316 131.13301 195.84304 126.73256 205.99219 121.80664 C 210.38762 119.67888 214.16441 119.05974 218.04102 122.33008 C 223.1768 126.6614 228.26541 125.55426 232.79492 121.66016 C 236.60687 118.36113 241.0262 117.99852 245.61914 117.71289 z M 311.15625 188.04102 L 311.1582 188.04102 C 312.83895 187.9398 314.15308 188.84342 315.43555 191.11328 C 317.72653 195.19393 324.01635 198.38318 323.01367 202.26562 C 322.24419 205.26199 315.62184 206.78823 311.57031 208.91016 C 302.27812 213.77196 292.97371 218.61852 283.6582 223.44922 C 283.32834 224.20705 282.8437 224.81067 282.29102 225.3457 C 283.19545 225.05983 284.11976 224.8392 285.08594 224.75 C 297.96523 219.55398 310.84729 214.36604 323.73047 209.18945 C 325.39772 208.52495 327.14708 206.90023 328.79102 209.15625 L 328.77344 209.15625 C 332.28279 213.95392 337.55744 213.85353 342.66992 214.23828 C 342.66692 214.24728 342.6666 214.25467 342.66602 214.26367 A 29.79453 29.79453 0 0 0 342.6875 214.25 A 18.386216 18.386216 0 0 0 350.51758 211.03711 C 354.19596 208.57707 355.69282 210.32608 356.3457 213.73633 L 356.32812 213.70117 C 356.78853 216.10874 357.09156 218.58082 356.28125 221.01172 C 347.88683 226.58471 338.10078 229.17907 329.18164 233.63281 C 327.49109 234.47808 325.77061 235.27762 324.06836 236.09375 C 323.45418 236.89415 322.74132 237.47733 321.9707 237.92969 C 323.50167 237.63339 325.04619 237.40334 326.61523 237.30078 L 354.31641 228.78906 C 350.02591 235.37639 347.41994 241.70666 341.32812 245.44336 C 341.29425 245.46296 341.26096 245.48265 341.22656 245.50195 C 341.27116 245.48685 341.31332 245.46998 341.35742 245.45508 C 338.52426 249.45994 333.19197 250.93015 331.01758 255.59375 L 320.78125 269.81641 C 318.53689 275.08627 314.14121 279.14939 312.3457 284.66992 C 312.3427 284.67192 312.34084 284.67378 312.33984 284.67578 C 312.00303 286.47562 311.66101 288.26841 311.32422 290.0625 C 311.05606 294.24224 314.54147 299.15626 311.96484 302.20508 C 309.56888 305.03239 304.50514 305.67343 300.55859 307.11914 C 270.7077 318.09802 240.82717 329.01068 210.92188 339.85352 C 208.95151 340.57056 206.56892 343.10615 204.77344 340.95508 A 7.1061498 7.1061498 0 0 1 204.05664 332.85156 C 204.05864 332.85056 204.0605 332.85021 204.0625 332.84961 C 206.41707 324.33954 209.58159 316.04392 209.17383 306.92188 C 209.01061 303.27263 212.45124 302.27577 215.51172 301.58789 A 8.4177853 8.4177853 0 0 1 220.27344 299.4375 A 0.58294913 0.58294913 0 0 1 221.03906 299.18164 A 211.39485 211.39485 0 0 1 246.54297 287.7207 A 2.6407597 2.6407597 0 0 1 249.03711 286.55469 C 252.33077 284.69508 255.65941 282.9813 259.32617 282.00195 L 281.3418 271.58203 A 8.5343756 8.5343756 0 0 1 281.32617 271.58594 L 280.16016 270.38477 C 259.96096 276.91379 239.68616 283.23253 219.60938 290.11133 C 214.07136 292.00591 210.78813 291.93573 209.84375 285.49414 L 204.3125 278.56836 L 201.95117 275.42578 C 201.95587 275.42378 201.9618 275.42292 201.9668 275.41992 C 201.96 275.41792 201.95231 275.41606 201.94531 275.41406 A 21.569118 21.569118 0 0 1 198.44727 266.30273 C 198.48598 264.26809 198.52977 262.23186 198.57617 260.19336 C 198.5763 260.18756 198.57603 260.18178 198.57617 260.17578 C 198.57817 260.17478 198.58003 260.17246 198.58203 260.17188 C 198.47231 256.01223 199.11856 251.81891 196.98633 247.85156 C 195.35407 244.80274 198.77383 244.93626 199.99219 244.3125 C 219.32862 234.29744 238.76549 224.49217 258.17188 214.58203 C 274.68682 206.17008 291.2482 197.84063 307.66406 189.23047 C 309.0085 188.52438 310.14785 188.10172 311.15625 188.04102 z M 356.28125 221.01172 C 356.08306 220.88931 355.89161 220.78461 355.69922 220.67969 A 1.020161 1.020161 0 0 0 356.28125 221.01172 z M 312.84375 307.83203 L 312.8457 307.83203 C 314.0783 307.91345 314.53166 308.96172 314.67188 310.78125 C 315.28397 318.79098 314.4148 326.41551 308.8418 332.79297 C 308.8366 332.79697 308.83508 332.80073 308.83008 332.80273 A 14.154005 14.154005 0 0 1 308.85156 332.79883 C 305.00991 342.12605 298.74974 349.40773 289.55664 353.50586 C 267.95835 363.13036 246.12168 372.2134 224.51758 381.83203 C 219.79569 383.93064 219.0093 382.59494 219.30078 378.25195 C 219.4232 376.37487 218.96189 374.45709 218.76953 372.5625 L 218.76953 372.55469 L 218.75781 372.55469 A 9.1056653 9.1056653 0 0 0 218.76953 372.55273 C 217.16633 365.65726 214.30403 359.22877 211.19141 352.93359 C 209.91475 350.34529 210.45025 349.43608 212.93945 348.39844 C 245.53797 335.11886 278.1043 321.76516 310.63672 308.33789 C 311.56217 307.95716 312.28348 307.79503 312.84375 307.83203 z M 348.71094 319.75391 L 348.71289 319.75391 C 349.08387 319.75106 349.47206 319.80361 349.88086 319.91797 C 353.43683 320.90898 351.63057 324.54657 351.57227 327.15234 C 350.58705 339.3243 348.45807 350.83664 335.32422 356.29883 C 333.42967 357.09165 331.73501 358.3569 329.95117 359.40039 C 329.59136 360.04091 329.11491 360.54018 328.58008 360.9668 C 329.40791 360.62333 330.35123 360.85807 331.17578 360.54883 L 331.18164 360.51953 L 341.67578 357.33594 C 342.00783 360.7439 341.1983 363.63568 340.09766 366.49609 C 338.89616 372.08038 338.92509 378.26756 331.66016 380.35156 C 325.66278 382.06345 323.5785 381.28492 320.80273 375.17188 C 320.79563 375.17188 320.79016 375.17324 320.78516 375.17383 C 319.83494 371.58869 320.81514 368.17972 321.71289 364.75781 C 322.22205 364.12751 322.82149 363.66119 323.46484 363.27148 C 322.93188 363.25737 322.39217 363.06328 321.83594 362.55273 C 320.39024 355.67392 325.10571 349.64162 324.39453 342.59375 C 324.05059 339.21847 328.93429 336.38962 332.49609 336.95508 C 337.56192 337.75954 338.84022 334.81709 340.4375 331.52344 L 340.44531 331.51758 C 341.35754 329.29023 342.13716 326.99724 343.21289 324.85742 C 344.41665 322.45496 346.11407 319.77361 348.71094 319.75391 z M 289.51562 357.92969 L 289.52344 357.94141 C 290.18799 365.85203 284.25534 371.63957 284.91406 378.67578 C 284.17956 381.93446 280.3187 382.68137 279.24023 385.67188 C 279.23723 385.67388 279.23833 385.67769 279.23633 385.67969 C 280.09577 390.22875 277.54234 392.6986 273.91797 394.69727 C 268.27503 397.81018 262.71351 401.11003 257.11719 404.28125 C 252.71592 414.54117 243.16209 418.80197 235.1582 414.08008 C 232.89893 413.83614 230.89607 413.09345 229.47461 411.18555 C 229.47011 411.18455 229.46689 411.18459 229.46289 411.18359 C 229.46189 411.1832 229.45957 411.18208 229.45898 411.18164 L 229.45508 411.18359 L 229.45508 411.17773 C 225.62193 408.9747 222.4991 406.1722 221.29883 401.7207 C 218.47153 396.79481 219.44026 393.82193 224.93164 391.08789 C 246.30256 380.47235 267.41602 369.338 289.51562 357.92969 z"/></svg>

<svg xmlns="http://www.w3.org/2000/svg" width="100%" height="100%" viewBox="-75.52 -43.52 599.04 599.04"><path d="M48 32C21.5 32 0 53.5 0 80v352c0 26.5 21.5 48 48 48h352c26.5 0 48-21.5 48-48V80c0-26.5-21.5-48-48-48H48zm139.121 64.006c4.952.087 9.999 1.051 15.158 2.459-2.671 3.416-7.673 2.678-10.01 6.156 4.119.637 7.575-2.197 12.463-2.53-5.45 6.88-.554 10.674 4.163 15.157L99.883 153.023c3.556-6.074 7.223-9.997 10.709-14.06l.043-.035c.883-3.519 3.707-5.11 6.672-6.506 3.346-1.58 6.226-3.65 8.05-6.955-.134-4.611 2.006-7.334 6.454-8.744 9.35-2.973 17.634-8.57 27.457-10.674 3.002-.641 6.167-3.293 9.175-5.123l-.006.015c6.103-3.708 12.317-5.047 18.684-4.935zm58.498 21.707h.002c3.678 2.011 6.406 5.585 10.742 6.512l3.084.25.028-.012v.014a33.572 33.572 0 0011.543-2.532c5.41-2.162 9.153-.583 11.287 4.82a.015.015 0 01-.002.006l.008-.005c1.585 3.707 3.079 7.445 2.916 11.601l-44.53 24.793c-.752.42-2 .263-1.918 1.645l-.004.002.028.004c9.024-1.225 16.818-5.94 25.213-8.942 8.394-3.002 16.796-6.333 24.986-9.982 3.538-1.574 5.246-.709 6.762 2.398 1.749 3.626 3.13 7.337 3.404 11.389a.126.126 0 01-.018.02c.86 5.435 3.03 10.405 5.452 15.283v.029c3.532 3.597-.517 3.999-2.295 4.92a445703.092 445703.092 0 01-62.239 32.08 11630.136 11630.136 0 01-46.925 24.152c-1.475.752-3.015 2.552-4.664 1.643-8.692-4.804-18.09-1.735-27.114-2.656-1.894-.193-3.83-.041-5.748-.041-1.394 1.02-2.98.999-4.586.859l-.03.014-.02-.016-.026-.002.004-.004c-4.24.732-8.433.678-12.393-1.168-2.541-1.166-4.662-.81-5.828 1.645-2.075 4.325-5.246 3.8-8.656 2.285-3.668-1.619-7.273-3.376-10.9-5.076-.007.003-.014.005-.02.01-4.681-1.586-9.672-2.594-13.058-6.674-3.62-2.385-4.674-4.234.636-5.948 8.581-2.775 16.433-7.666 25.487-9.228l31.601-16.1 20.986-12.3c.336-.782.95-1.198 1.616-1.55a6.535 6.535 0 01-1.71.157c-20.465 8.981-40.927 17.968-61.384 26.96-6.47 2.851-12.947 5.702-19.33 8.745-2.822 1.34-4.529 1.481-5.211-2.192-1.073-5.8-2.49-11.542-.799-17.447l.018-.008a4.028 4.028 0 012.365-3.724c6.511-4.14 4.198-9.98 2.916-15.53-1.755-7.601-1.418-8.295 6.213-10.79a80080.777 80080.777 0 0171.629-32.278c10.295-4.611 20.706-9.011 30.855-13.937 4.396-2.128 8.172-2.747 12.049.523 5.136 4.331 10.224 3.224 14.754-.67 3.812-3.299 8.231-3.661 12.824-3.947zm65.537 70.328h.002c1.68-.101 2.995.802 4.278 3.072 2.29 4.08 8.58 7.27 7.578 11.153-.77 2.996-7.392 4.522-11.444 6.644a8607.79 8607.79 0 01-27.912 14.54c-.33.757-.814 1.36-1.367 1.896.904-.286 1.829-.507 2.795-.596a29702.67 29702.67 0 0138.644-15.56c1.668-.665 3.417-2.29 5.061-.034h-.018c3.51 4.798 8.784 4.698 13.897 5.082-.003.01-.003.017-.004.026a29.795 29.795 0 00.022-.014 18.386 18.386 0 007.83-3.213c3.678-2.46 5.175-.71 5.828 2.7l-.018-.036c.46 2.408.764 4.88-.047 7.31-8.394 5.574-18.18 8.168-27.1 12.622-1.69.845-3.41 1.645-5.113 2.46a7.16 7.16 0 01-2.097 1.837c1.53-.297 3.075-.527 4.644-.63l27.701-8.51c-4.29 6.586-6.896 12.917-12.988 16.653l-.101.059.13-.047c-2.833 4.005-8.165 5.475-10.34 10.139l-10.236 14.222c-2.244 5.27-6.64 9.333-8.435 14.854a.016.016 0 00-.006.006c-.337 1.8-.679 3.592-1.016 5.387-.268 4.18 3.217 9.093.64 12.142-2.395 2.827-7.459 3.468-11.405 4.914a20727.226 20727.226 0 01-89.637 32.735c-1.97.717-4.353 3.252-6.149 1.101a7.106 7.106 0 01-.716-8.103l.006-.002c2.354-8.51 5.519-16.806 5.11-25.928-.162-3.65 3.278-4.646 6.339-5.334a8.418 8.418 0 014.761-2.15.583.583 0 01.766-.256 211.395 211.395 0 0125.504-11.461 2.64 2.64 0 012.494-1.166c3.294-1.86 6.622-3.574 10.29-4.553l22.015-10.42a8.534 8.534 0 01-.016.004l-1.166-1.201c-20.199 6.529-40.474 12.848-60.55 19.726-5.539 1.895-8.822 1.825-9.766-4.617l-5.531-6.926-2.362-3.142.016-.006-.022-.006a21.57 21.57 0 01-3.498-9.111c.039-2.035.083-4.071.13-6.11v-.017c.001-.001.003-.004.005-.004-.11-4.16.537-8.353-1.596-12.32-1.632-3.05 1.788-2.916 3.006-3.54 19.337-10.015 38.773-19.82 58.18-29.73 16.515-8.412 33.076-16.741 49.492-25.352 1.345-.706 2.484-1.128 3.492-1.189zm45.125 32.97a12.15 12.15 0 00-.582-.331 1.02 1.02 0 00.582.332zm-43.437 86.821h.002c1.232.081 1.686 1.13 1.826 2.95.612 8.009-.257 15.634-5.83 22.011-.005.004-.007.008-.012.01a14.154 14.154 0 01.022-.004c-3.842 9.327-10.102 16.609-19.295 20.707-21.599 9.624-43.435 18.707-65.04 28.326-4.721 2.099-5.508.763-5.216-3.58.122-1.877-.34-3.795-.531-5.69v-.007h-.012a9.106 9.106 0 00.012-.002c-1.604-6.896-4.466-13.324-7.579-19.62-1.276-2.588-.74-3.497 1.748-4.535a22980.483 22980.483 0 0097.698-40.06c.925-.38 1.646-.543 2.207-.506zm35.867 11.922h.002a4.2 4.2 0 011.168.164c3.556.991 1.75 4.629 1.691 7.234-.985 12.172-3.114 23.685-16.248 29.147-1.894.793-3.589 2.058-5.373 3.101-.36.64-.836 1.14-1.37 1.567.827-.344 1.77-.109 2.595-.418l.006-.03 10.494-3.183c.332 3.408-.478 6.3-1.578 9.16-1.202 5.584-1.173 11.772-8.438 13.856-5.997 1.711-8.082.933-10.857-5.18l-.018.002c-.95-3.585.03-6.994.928-10.416.51-.63 1.108-1.097 1.752-1.487-.533-.014-1.073-.208-1.63-.718-1.445-6.88 3.27-12.911 2.56-19.96-.344-3.375 4.54-6.203 8.101-5.638 5.066.805 6.344-2.138 7.942-5.432l.007-.005c.913-2.228 1.692-4.52 2.768-6.66 1.204-2.403 2.901-5.084 5.498-5.104zm-59.195 38.176l.007.011c.665 7.911-5.268 13.699-4.609 20.735-.734 3.258-4.595 4.005-5.674 6.996-.003.002-.002.006-.004.008.86 4.549-1.694 7.019-5.318 9.017-5.643 3.113-11.204 6.413-16.8 9.584-4.402 10.26-13.956 14.521-21.96 9.8-2.26-.245-4.262-.988-5.683-2.895l-.012-.002a.028.028 0 01-.004-.002l-.004.002v-.006c-3.833-2.203-6.956-5.006-8.156-9.457-2.827-4.926-1.859-7.9 3.633-10.633 21.37-10.616 42.484-21.75 64.584-33.158z"/></svg>
